build/img/logotypes/header-logo.svg

<?xml version="1.0" encoding="UTF-8"?> <svg xmlns="http://www.w3.org/2000/svg" width="196" height="54" viewBox="0 0 196 54" fill="none"> <path d="M33.0695 47.4487V53.7249H46.8082V23.0424L23.4041 0L0 23.0424V53.7249H26.627V53.25V47.4487V30.9404H20.1812V47.4487H6.34304V25.6514L23.4041 8.85125L40.4651 25.6514V47.4487H33.0695Z" fill="white"></path> <path d="M27.0796 24.6201C27.0796 26.6286 25.4338 28.257 23.4041 28.257C21.3743 28.257 19.7285 26.6286 19.7285 24.6201C19.7285 22.6118 21.3743 20.9833 23.4041 20.9833C25.4338 20.9833 27.0796 22.6118 27.0796 24.6201Z" fill="white"></path> <path d="M195.784 42.2717C195.725 39.466 194.048 37.6035 191.333 37.6035C190.184 37.6035 188.998 37.9868 187.928 38.8757C187.092 37.9495 186.039 37.6035 184.873 37.6035C183.825 37.6035 182.83 37.8919 182.014 38.5263V37.5254C181.061 37.6815 180.108 37.7765 179.155 37.7969V47.252H182.014V42.8043C182.014 41.013 182.85 40.2633 184.095 40.2633C185.138 40.2633 185.906 40.8536 186.036 42.3023V47.252H188.954V42.4685H188.957C188.957 42.4515 188.957 42.4346 188.957 42.421C188.978 42.0342 188.957 41.5932 188.994 41.2064C189.324 40.589 190.181 40.2633 190.863 40.2633C192.18 40.2633 192.708 40.8637 192.78 42.326V47.252H195.787V42.2717H195.784Z" fill="white"></path> <path d="M172.297 37.5085C169.52 37.5085 167.268 39.7374 167.268 42.4854C167.268 45.2335 169.52 47.4623 172.297 47.4623C175.075 47.4623 177.327 45.2335 177.327 42.4854C177.324 39.7374 175.075 37.5085 172.297 37.5085ZM172.297 44.7177C171.05 44.7177 170.041 43.717 170.041 42.4854C170.041 41.2505 171.053 40.2531 172.297 40.2531C173.542 40.2531 174.553 41.254 174.553 42.4854C174.553 43.717 173.542 44.7177 172.297 44.7177Z" fill="white"></path> <path d="M163.922 43.9814C163.507 44.4327 162.913 44.7176 162.252 44.7176C161.007 44.7176 159.995 43.7168 159.995 42.4853C159.995 41.2504 161.007 40.2529 162.252 40.2529C162.913 40.2529 163.51 40.538 163.922 40.9892L165.972 39.1504C165.053 38.1462 163.726 37.5118 162.248 37.5118C159.471 37.5118 157.222 39.7407 157.222 42.4887C157.222 45.2367 159.471 47.4656 162.248 47.4656C163.726 47.4656 165.049 46.8312 165.972 45.827L163.922 43.9814Z" fill="white"></path> <path d="M152.548 47.2519C153.662 47.2519 154.564 46.3588 154.564 45.2571C154.564 44.1554 153.662 43.2622 152.548 43.2622C151.435 43.2622 150.532 44.1554 150.532 45.2571C150.532 46.3588 151.435 47.2519 152.548 47.2519Z" fill="white"></path> <path d="M80.9267 47.4588V43.459C79.713 43.4895 78.5232 43.503 77.2717 43.52C75.9928 43.537 74.6694 43.5539 73.315 43.5879L72.6464 43.6049L81.0604 33.6713L80.0764 30.903H67.3561V34.9029C67.7914 34.8927 68.2303 34.8826 68.6693 34.8723C70.4933 34.8317 72.3825 34.7875 74.4602 34.6044L75.2043 34.5365L66.3206 44.6905L67.3663 47.4588H80.9267Z" fill="white"></path> <path d="M111.319 47.2315V23.2459C109.851 23.4936 108.436 23.6191 106.92 23.6327V32.908L106.406 32.3991C105.336 31.3406 103.618 30.8013 101.304 30.8013C96.2391 30.8013 93.095 34.0445 93.095 39.2691C93.095 44.2732 96.4349 47.6318 101.41 47.6318C103.721 47.6318 105.301 47.0008 106.382 45.6471L106.92 44.972V47.6522C108.573 47.4283 109.951 47.296 111.319 47.2315ZM105.812 42.2037C104.983 43.1739 103.711 43.727 102.312 43.727C99.425 43.727 97.7039 42.0612 97.7039 39.2691C97.7039 36.4973 99.514 34.7061 102.312 34.7061C103.676 34.7061 104.822 35.1675 105.627 36.0428C106.361 36.8841 106.748 38.024 106.748 39.3369C106.748 40.4735 106.433 41.4369 105.812 42.2037Z" fill="white"></path> <path d="M138.655 47.4588V43.459C137.442 43.4895 136.252 43.503 135 43.52C133.721 43.537 132.398 43.5539 131.043 43.5879L130.375 43.6049L138.789 33.6713L137.805 30.903H125.084V34.9029C125.52 34.8927 125.959 34.8826 126.398 34.8723C128.221 34.8317 130.107 34.7875 132.189 34.6044L132.933 34.5365L124.049 44.6905L125.095 47.4588H138.655Z" fill="white"></path> <path d="M60.3685 28.2568C62.1088 28.2568 63.5195 26.8609 63.5195 25.139C63.5195 23.4171 62.1088 22.0212 60.3685 22.0212C58.6282 22.0212 57.2175 23.4171 57.2175 25.139C57.2175 26.8609 58.6282 28.2568 60.3685 28.2568Z" fill="white"></path> <path d="M62.6212 30.9404H58.1194V47.4249H62.6212V30.9404Z" fill="white"></path> <path d="M90.297 25.139C90.297 26.8591 88.8883 28.2568 87.1462 28.2568C85.4079 28.2568 83.9954 26.8625 83.9954 25.139C83.9954 23.4156 85.4045 22.0212 87.1462 22.0212C88.8883 22.0212 90.297 23.4156 90.297 25.139Z" fill="white"></path> <path d="M89.3992 30.9404H84.8975V47.4249H89.3992V30.9404Z" fill="white"></path> <path d="M118.094 27.955C119.664 27.955 120.942 26.6896 120.942 25.1392C120.942 23.5854 119.664 22.32 118.094 22.32C116.523 22.32 115.248 23.5854 115.248 25.1392C115.248 26.693 116.527 27.955 118.094 27.955Z" fill="white"></path> <path d="M148.026 25.139C148.026 26.8591 146.617 28.2568 144.875 28.2568C143.136 28.2568 141.724 26.8625 141.724 25.139C141.724 23.4156 143.133 22.0212 144.875 22.0212C146.617 22.0212 148.026 23.4156 148.026 25.139Z" fill="white"></path> <path d="M147.128 30.9404H142.625V47.4249H147.128V30.9404Z" fill="white"></path> <path d="M89.3992 30.9404H84.8975V47.4249H89.3992V30.9404Z" fill="white"></path> <path d="M120.346 30.9404H115.844V47.4249H120.346V30.9404Z" fill="white"></path> <path d="M193.673 23.9137C193.673 24.1417 193.622 24.3234 193.518 24.4587C193.418 24.594 193.307 24.7003 193.183 24.7776C193.036 24.8665 192.872 24.9341 192.693 24.9805L193.793 26.5865H193.183L192.142 25.0385H191.467V26.5865H190.976V22.7831H192.388C192.786 22.7831 193.099 22.8971 193.327 23.1252C193.558 23.3493 193.673 23.6122 193.673 23.9137ZM191.467 23.2585V24.5631H192.388C192.599 24.5631 192.774 24.5012 192.914 24.3775C193.053 24.25 193.123 24.0954 193.123 23.9137C193.123 23.732 193.053 23.5774 192.914 23.4498C192.774 23.3223 192.599 23.2585 192.388 23.2585H191.467ZM188.955 24.6848C188.955 25.1602 189.038 25.599 189.206 26.001C189.373 26.3991 189.603 26.7431 189.894 27.033C190.185 27.319 190.528 27.5432 190.922 27.7056C191.317 27.8679 191.744 27.9491 192.202 27.9491C192.661 27.9491 193.087 27.8679 193.482 27.7056C193.877 27.5432 194.22 27.319 194.511 27.033C194.802 26.7431 195.031 26.3991 195.198 26.001C195.366 25.599 195.45 25.1602 195.45 24.6848C195.45 24.2094 195.366 23.7726 195.198 23.3745C195.031 22.9725 194.802 22.6285 194.511 22.3424C194.22 22.0525 193.877 21.8264 193.482 21.6641C193.087 21.5017 192.661 21.4206 192.202 21.4206C191.744 21.4206 191.317 21.5017 190.922 21.6641C190.528 21.8264 190.185 22.0525 189.894 22.3424C189.603 22.6285 189.373 22.9725 189.206 23.3745C189.038 23.7726 188.955 24.2094 188.955 24.6848ZM196 24.6848C196 25.2221 195.9 25.7207 195.701 26.1807C195.501 26.6407 195.23 27.0427 194.887 27.3867C194.545 27.7307 194.142 27.9993 193.679 28.1926C193.217 28.3858 192.725 28.4825 192.202 28.4825C191.68 28.4825 191.188 28.3858 190.725 28.1926C190.266 27.9993 189.866 27.7307 189.523 27.3867C189.18 27.0427 188.907 26.6407 188.704 26.1807C188.504 25.7207 188.405 25.2221 188.405 24.6848C188.405 24.1553 188.504 23.6586 188.704 23.1947C188.907 22.7309 189.18 22.327 189.523 21.983C189.866 21.6389 190.266 21.3703 190.725 21.177C191.188 20.9838 191.68 20.8871 192.202 20.8871C192.725 20.8871 193.217 20.9838 193.679 21.177C194.142 21.3703 194.545 21.6389 194.887 21.983C195.23 22.327 195.501 22.7309 195.701 23.1947C195.9 23.6586 196 24.1553 196 24.6848Z" fill="white"></path> </svg>

<svg xmlns="http://www.w3.org/2000/svg" width="196" height="54" fill="none"><path d="M33.07 47.449v6.276h13.738V23.042L23.404 0 0 23.042v30.683h26.627V30.94h-6.446v16.51H6.343v-21.8l17.061-16.8 17.061 16.8v21.8H33.07z" fill="#fff"/><path d="M27.08 24.62c0 2.009-1.646 3.637-3.676 3.637-2.03 0-3.675-1.628-3.675-3.637 0-2.008 1.645-3.637 3.675-3.637s3.676 1.629 3.676 3.637zm168.704 17.652c-.059-2.806-1.736-4.669-4.451-4.669-1.149 0-2.335.384-3.405 1.273-.836-.926-1.889-1.273-3.055-1.273-1.048 0-2.043.289-2.859.923v-1c-.953.155-1.906.25-2.859.27v9.456h2.859v-4.448c0-1.791.836-2.54 2.081-2.54 1.043 0 1.811.59 1.941 2.038v4.95h2.918v-4.784h.003v-.047c.021-.387 0-.828.037-1.215.33-.617 1.187-.943 1.869-.943 1.317 0 1.845.6 1.917 2.063v4.926h3.007v-4.98h-.003zm-23.487-4.764c-2.777 0-5.029 2.23-5.029 4.977 0 2.748 2.252 4.977 5.029 4.977 2.778 0 5.03-2.229 5.03-4.977-.003-2.748-2.252-4.977-5.03-4.977zm0 7.21a2.245 2.245 0 01-2.256-2.233c0-1.234 1.012-2.232 2.256-2.232 1.245 0 2.256 1.001 2.256 2.232 0 1.232-1.011 2.233-2.256 2.233zm-8.375-.737a2.263 2.263 0 01-1.67.737c-1.245 0-2.257-1.001-2.257-2.233 0-1.235 1.012-2.232 2.257-2.232a2.26 2.26 0 011.67.736l2.05-1.839a5.035 5.035 0 00-3.724-1.638c-2.777 0-5.026 2.229-5.026 4.977s2.249 4.977 5.026 4.977a5.041 5.041 0 003.724-1.639l-2.05-1.846zm-11.374 3.271a2.005 2.005 0 002.016-1.995 2.005 2.005 0 00-2.016-1.995 2.006 2.006 0 00-2.016 1.995c0 1.102.903 1.995 2.016 1.995zm-71.621.207v-4c-1.214.03-2.404.044-3.655.061-1.28.017-2.603.034-3.957.068l-.669.017 8.414-9.934-.984-2.768h-12.72v4l1.313-.03c1.824-.041 3.713-.085 5.791-.269l.744-.068-8.883 10.154 1.045 2.769h13.56zm30.392-.228V23.246a27.424 27.424 0 01-4.399.387v9.275l-.514-.509c-1.07-1.058-2.788-1.598-5.102-1.598-5.065 0-8.209 3.244-8.209 8.468 0 5.004 3.34 8.363 8.315 8.363 2.311 0 3.891-.631 4.972-1.985l.538-.675v2.68a49.382 49.382 0 014.399-.42zm-5.507-5.027c-.829.97-2.101 1.523-3.5 1.523-2.887 0-4.608-1.666-4.608-4.458 0-2.772 1.81-4.563 4.608-4.563 1.364 0 2.51.461 3.315 1.337.734.841 1.121 1.981 1.121 3.294 0 1.136-.315 2.1-.936 2.867zm32.843 5.255v-4c-1.213.03-2.403.044-3.655.061-1.279.017-2.602.034-3.957.068l-.668.017 8.414-9.934-.984-2.768h-12.721v4l1.314-.03c1.823-.041 3.709-.085 5.791-.269l.744-.068-8.884 10.154 1.046 2.769h13.56zM60.368 28.257c1.74 0 3.151-1.396 3.151-3.118s-1.41-3.118-3.15-3.118-3.151 1.396-3.151 3.118 1.41 3.118 3.15 3.118zm2.253 2.683H58.12v16.485h4.502V30.94zm27.676-5.801c0 1.72-1.409 3.118-3.15 3.118-1.74 0-3.152-1.395-3.152-3.118 0-1.723 1.41-3.118 3.151-3.118 1.742 0 3.151 1.395 3.151 3.118zM89.4 30.94h-4.503v16.485H89.4V30.94zm28.694-2.985c1.57 0 2.848-1.265 2.848-2.816 0-1.554-1.278-2.819-2.848-2.819-1.571 0-2.846 1.265-2.846 2.82 0 1.553 1.279 2.815 2.846 2.815zm29.932-2.816c0 1.72-1.409 3.118-3.151 3.118-1.739 0-3.151-1.395-3.151-3.118 0-1.723 1.409-3.118 3.151-3.118 1.742 0 3.151 1.395 3.151 3.118zm-.898 5.801h-4.503v16.485h4.503V30.94z" fill="#fff"/><path d="M89.4 30.94h-4.503v16.485H89.4V30.94zm30.946 0h-4.502v16.485h4.502V30.94zm73.327-7.026c0 .228-.051.41-.155.545-.1.135-.211.241-.335.319a1.83 1.83 0 01-.49.203l1.1 1.605h-.61l-1.041-1.547h-.675v1.547h-.491v-3.803h1.412c.398 0 .711.114.939.342.231.224.346.487.346.789zm-2.206-.655v1.304h.921a.765.765 0 00.526-.185.607.607 0 00.209-.464.607.607 0 00-.209-.464.751.751 0 00-.526-.191h-.921zm-2.512 1.426c0 .475.083.914.251 1.316.167.398.397.742.688 1.032.291.286.634.51 1.028.673.395.162.822.243 1.28.243.459 0 .885-.081 1.28-.243a3.171 3.171 0 001.029-.673c.291-.29.52-.634.687-1.032a3.38 3.38 0 00.252-1.316c0-.476-.084-.912-.252-1.31a3.09 3.09 0 00-1.716-1.71 3.33 3.33 0 00-1.28-.244c-.458 0-.885.08-1.28.243a3.128 3.128 0 00-1.716 1.71 3.336 3.336 0 00-.251 1.31zm7.045 0c0 .537-.1 1.036-.299 1.496-.2.46-.471.862-.814 1.206a3.788 3.788 0 01-2.685 1.096 3.795 3.795 0 01-1.477-.29 3.714 3.714 0 01-1.202-.806 3.948 3.948 0 01-.819-1.206 3.71 3.71 0 01-.299-1.496c0-.53.099-1.026.299-1.49.203-.464.476-.868.819-1.212a3.713 3.713 0 011.202-.806 3.8 3.8 0 011.477-.29 3.788 3.788 0 012.685 1.096c.343.344.614.748.814 1.212.199.464.299.96.299 1.49z" fill="#fff"/></svg>
